X: 21014
T: Julianne Johnson
R: reel
M: 4/4
K: Dmajor
|"D"fedf edBA|Bd de d2de|f2 a2 aab2|"A" a8|
"D"fedf edBA|Bd de d2de|f2 f2 ed B2|"A" A8:|
|:"G" BABc d3A|BABc d3 A|BABd ed d2|"D"A6 A2|
"G"BABc d2 AA|BABc d2 e2|"D"f2ff edB2|"A7"A8:|

